X: 1
T:Monymusk  "1998.3"
M:C
L:1/8
Q:80
C:Traditional
S:Strathspey
K:HP
|: {gef}e3/2A/2{gcd}c/2{e}A3/2{d}c/2e/2{g}A{Gdc}d3/2f/2|
{gef}e3/2d/2{gcd}c/2a3/2B/2{d}B/2{e}B{Gdc}d3/2f/2|
{gef}e3/2A/2{gcd}c/2{e}A3/2{g}c/2e3/2{A}e3/2a/2|  !
f/2g/2aB/2c/2d{gcd}c/2{e}A3/2{GAG}A2:| [|
e/2|
{ag}a3/2e/2{gcd}c3/2a/2e/2a3/2{cd}c3/2e/2|
{ag}a3/2e/2{Gdc}d3/2a/2{cd}c/2a3/2{BG}B3/2e/2|  !
{ag}a3/2e/2{gcd}c3/2a/2e/2a3/2{cd}c/2a3/2|
f/2g/2aB/2c/2d{gcd}c/2{e}A3/2{GAG}A3/2e/2|
{ag}a3/2e/2{gcd}c3/2a/2e/2a3/2{cd}c3/2e/2|  !
{ag}a3/2e/2{Gdc}d3/2a/2{cd}c/2a3/2{BG}B3/2e/2|
{ag}a3/2e/2{g}f/2g/2a{ef}e3/2a/2{cd}c/2a3/2|
f/2g/2aB/2c/2d{gcd}c/2{e}A3/2{GAG}A2|]  !
